lib/svgs/clock.svg

<?xml version="1.0" encoding="UTF-8" standalone="no"?>
<svg width="20px" height="20px" viewBox="0 0 20 20" version="1.1" xmlns="http://www.w3.org/2000/svg" xmlns:xlink="http://www.w3.org/1999/xlink">
    <defs></defs>
    <g id="Icons" stroke="none" stroke-width="1" fill="none" fill-rule="evenodd">
        <g id="Web" transform="translate(-145.000000, -1230.000000)" fill="#000000">
            <g id="date/clock" transform="translate(145.000000, 1230.000000)">
                <path d="M10,2 C5.582,2 2,5.582 2,10 C2,14.418 5.582,18 10,18 C14.418,18 18,14.418 18,10 C18,5.582 14.418,2 10,2 M10,3.2 C13.75,3.2 16.8,6.25 16.8,10 C16.8,13.75 13.75,16.8 10,16.8 C6.25,16.8 3.2,13.75 3.2,10 C3.2,6.25 6.25,3.2 10,3.2 M13.296,12.9326 C13.194,12.9326 13.091,12.9066 12.997,12.8516 L9.341,10.7416 C9.155,10.6346 9.041,10.4366 9.041,10.2226 L9.041,6.6246 C9.041,6.2936 9.309,6.0246 9.641,6.0246 C9.972,6.0246 10.241,6.2936 10.241,6.6246 L10.241,9.8756 L13.596,11.8126 C13.883,11.9786 13.982,12.3456 13.816,12.6326 C13.705,12.8256 13.504,12.9326 13.296,12.9326" id="Shape"></path>
            </g>
        </g>
    </g>
</svg>

<svg xmlns="http://www.w3.org/2000/svg" viewBox="0 0 20 20">
    <path fill="#000" fill-rule="evenodd" d="M10 2a8 8 0 1 0 0 16 8 8 0 0 0 0-16m0 1.2c3.75 0 6.8 3.05 6.8 6.8s-3.05 6.8-6.8 6.8-6.8-3.05-6.8-6.8S6.25 3.2 10 3.2m3.296 9.733a.59.59 0 0 1-.299-.081l-3.656-2.11a.598.598 0 0 1-.3-.52V6.626a.6.6 0 1 1 1.2 0v3.25l3.355 1.938a.6.6 0 0 1-.3 1.12"/>
</svg>
